._scraped/app.urodapter.com/img/icons/menu-icon-06.svg

<svg fill="none" height="33" viewBox="0 0 33 33" width="33" xmlns="http://www.w3.org/2000/svg"><path d="m12.4978 8.00439c-6.89077 0-12.49779237 5.60701-12.49779237 12.49781s5.60702237 12.4978 12.49779237 12.4978c6.8908 0 12.4978-5.607 12.4978-12.4978s-5.6026-12.49781-12.4978-12.49781zm0 24.07361c-6.38345 0-11.571376-5.1924-11.571376-11.5714s5.192346-11.57579 11.571376-11.57579c6.379 0 11.5714 5.19239 11.5714 11.57139s-5.1924 11.5714-11.5714 11.5714zm1.9367-18.246c-.7721-.4941-1.8088-.6529-2.7749-.4279-.9617.2294-1.769.8249-2.27191 1.6763-.12793.2206-.05735.503.16323.6353.22057.1279.50288.0574.63528-.1632.4764-.8117 1.1823-1.125 1.6852-1.2441.719-.1676 1.5087-.0529 2.0601.3044.5471.3529.9044.9132.9838 1.5441.075.5999-.1147 1.1867-.5382 1.6454-1.9675 2.1352-2.7528 3.3307-2.5146 5.2012.0309.2338.2294.4059.4588.4059h.0574c.2559-.0309.4323-.2647.4014-.5162-.1897-1.4911.4015-2.4219 2.2764-4.46.6132-.6661.8911-1.5132.7764-2.391-.1147-.9-.6264-1.7029-1.4029-2.2058zm-2.0867 11.0773c-.472 0-.8558.3838-.8558.8558s.3838.8514.8558.8514.8558-.3838.8558-.8514-.3838-.8558-.8558-.8558zm-.0706.8558c0-.0397.0309-.075.0706-.075s.0706.0309.0706.075c0 .0794-.1456.0794-.1456 0z" fill="#52b2d6"/></svg>

<svg width="33" height="33" viewBox="0 0 33 33" fill="none" xmlns="http://www.w3.org/2000/svg">
<path d="M12.4978 8.00439C5.60703 8.00439 7.62939e-06 13.6114 7.62939e-06 20.5022C7.62939e-06 27.393 5.60703 33 12.4978 33C19.3886 33 24.9956 27.393 24.9956 20.5022C24.9956 13.6114 19.393 8.00439 12.4978 8.00439ZM12.4978 32.078C6.11435 32.078 0.926424 26.8856 0.926424 20.5066C0.926424 14.1276 6.11877 8.93081 12.4978 8.93081C18.8768 8.93081 24.0692 14.1232 24.0692 20.5022C24.0692 26.8812 18.8768 32.0736 12.4978 32.0736V32.078ZM14.4345 13.832C13.6624 13.3379 12.6257 13.1791 11.6596 13.4041C10.6979 13.6335 9.8906 14.229 9.38769 15.0804C9.25976 15.301 9.33034 15.5834 9.55092 15.7157C9.77149 15.8436 10.0538 15.7731 10.1862 15.5525C10.6626 14.7408 11.3685 14.4275 11.8714 14.3084C12.5904 14.1408 13.3801 14.2555 13.9315 14.6128C14.4786 14.9657 14.8359 15.526 14.9153 16.1569C14.9903 16.7568 14.8006 17.3436 14.3771 17.8023C12.4096 19.9375 11.6243 21.133 11.8625 23.0035C11.8934 23.2373 12.0919 23.4094 12.3213 23.4094C12.339 23.4094 12.361 23.4094 12.3787 23.4094C12.6346 23.3785 12.811 23.1447 12.7801 22.8932C12.5904 21.4021 13.1816 20.4713 15.0565 18.4332C15.6697 17.7671 15.9476 16.92 15.8329 16.0422C15.7182 15.1422 15.2065 14.3393 14.43 13.8364L14.4345 13.832ZM12.3478 24.9093C11.8758 24.9093 11.492 25.2931 11.492 25.7651C11.492 26.2371 11.8758 26.6165 12.3478 26.6165C12.8198 26.6165 13.2036 26.2327 13.2036 25.7651C13.2036 25.2975 12.8198 24.9093 12.3478 24.9093ZM12.2772 25.7651C12.2772 25.7254 12.3081 25.6901 12.3478 25.6901C12.3875 25.6901 12.4184 25.721 12.4184 25.7651C12.4184 25.8445 12.2728 25.8445 12.2728 25.7651H12.2772Z" fill="#52B2D6"/>
</svg>
